X: 39
T:Trip to the Laundry,A. BC.39
M:2/4
L:1/8
Q:200
S:Benjamin Cooke MS.circa 1770, F.Kidson Coll.
R:Country dance
O:England
A:Uncertain, probably northern
Z:vmp.John Bagnall
K:G
GBAc | Bd A2 | c/B/A/G/ FA | cA A2 |!
GBAc | Bd A2 | c/B/A/G/ FA | BG G2:|!
|:dg g/f/e/d/ | e/d/c/B/ c/B/A/G/ | dgfe | (f/g/a) d2 |!
dg g/f/e/d/ | e/d/c/B/ c/B/A/G/ | BdAc | BG G2 :|]
